X:1
T:Las voles vous
T:Las voles vous
T:Orlande de Lassus
C:Orlande de Lassus
%%score [ 1 [ 2 3 ] 4 ]
L:1/8
Q:1/4=100
M:2/2
K:C
V:1 treble nm="Superius" snm="S"
V:2 treble-8 nm="Tenor 1" snm="T 1"
V:3 treble-8 nm="Tenor 2" snm="T 2"
V:4 bass nm="Bassus" snm="B"
V:1
 z8 | z8 | z4 A4- | A4 c4- | c2 B2 B2 G2 | A2 c2 c2 B2 | A2 G2 z2 G2 | A2 c2 c2 B2 | A3 B cA B2- | %9
w: ||Las,|_ vo-|* lez vous qu'u-|ne per- son- ne|chan- te, qu'u-|ne per- son- ne|chan- * * * *|
 BA A4 G2 | A4 z2 A2 | A2 A2 G3 F | ED E2 c4 | A4 ^F2 G2- | G2 c4 B2 | c2 A3 G G2- | GF F3 E E2- | %17
w: |te, à|qui le coeur, _|_ _ _ à|qui le coeur|_ ne fais|que sous- * *||
 E2 D2 E4- | E4 z2 E2 | G2 DE FD d2 | c4 z2 c2 | c2 GA BG d2 | A3 D A2 GA | BG c2 B2 B2 | %24
w: * pi- rer?|_ Lais-|sez chan- * * * *|ter, lais-|sez chan- * * * *|ter, lais- sez chan- *|* * * ter ce-|
 e2 d2 c2 B2 | A4 G4- | G2 G2 A2 B2 | c4 z4 | z2 A2 B2 ^c2 | d4 z4 | z2 A2 ^G2 G2 | A2 A2 c2 B2 | %32
w: lui qui se con-|ten- te,|_ et me lais-|sez,|et me lais-|sez,|et me lais-|sez mon seul mal|
 A2 A2 B4 | E4 ^F2 F2 | G2 G2 A3 E | G2 F2 E2 G2 | G2 F2 G4 | z2 c2 d3 B | c2 A4 G2 | z2 A2 A2 A2 | %40
w: en- du- rer,|et ma lais-|sez mon seul mal|en- du- rer, et|me lais- sez|mon seul mal|en- du- rer,|et me lais-|
 G4 z4 | z2 c4 B2 | A2 G2 z4 | z2 A2 c3 G | _B2 A2 G3 F | E2 c2 B2 A2 |"^#" GE A4 G2 | A8 |] %48
w: sez|et me|lais- sez|mon seul man|en- * * *||* * * du-|rer.|
V:2
 z8 | e8 | d2 e2 A2 f2 | f2 e2 a2 a2 | g4 g2 d2 | f2 g2 a2 g2 | e3 d ec d2 | e2 a2 a2 g2 | %8
w: |Las,|vo- lez vous qu'u-|ne per- son- ne|chan- te, qu'u-|ne per- son- ne|chan- * * * te,|qu'u- ne per- son-|
 f2 ed ef g2 | f4 e4 | e2 c2 cdec | f2 f2 d4 | g4 e4 | c4 d2 d2 | e2 g2 g4- | g2 f2 e4 | %16
w: ne chan- * * * *||te, à qui _ _ _|_ le coeur,|à qui|le coeur ne|fais que sous-|* pi- rer,|
 z2 c4 A2- | AG AB c2 B2 | A3 A G4- | G4 z2 f2 | e2 ef ge a2 | a2 e2 g2 de | fd f2 e2 e2 | %23
w: ne fais|_ _ _ _ _ que|sous- pi- rer?|_ Lais-|sez chan- * * * ter,|lais- sez chan- * *|* * * ter, lais-|
 e2 ef gd g2 | g3 g g2 g2 | f2 f2 d4 | e2 e2 f2 d2 | c4 z4 | z2 f2 g2 e2 | d2 d2 f2 e2 | d2 d2 e4 | %31
w: sez chan- * * * *|ter ce- lui qui|se con- ten-|te, et me lai-|sez,|et me lais-|sez mon seul mal|en- du- rer,|
 ^f4 g3 d | f2 e2 e4 | ^c4 d2 d2 | e4 c2 c2- | cBdd G2 e2 | d2 d2 B2 Bd- | dA e2 d2 B2 | e4 e2 e2 | %39
w: et me _|_ lais- sez,|et me lais-|sez mon seul|_ mal en- du- rer, et|me lai- sez mon- *|* mal en- du- rer,|et me lais-|
 c2 f2 f2 f2 | e4 e2 g2- | gdfe g2 g2 | f2 d2 f2 e2 | d4 e4 | f3 c e2 d2 | c2 z g2 d f2 | e6 e2 | %47
w: sez, et me lais-|sez mon seul|_ mal en- du- rer, et|me lais- sez mon|seul mal|en- * * du-|rer, mon seul mal|en- du-|
 e8 |] %48
w: rer.|
V:3
 A8 | c6 B2 | B2 B2 c2 c2 | d2 c2 e4 | e2 e2 d2 B2 | c2 e2 f2 d2 | c3 B A2 G2 | c2 e4 e2 | c6 d2 | %9
w: Las,|vo- lez|vous qu'u- ne per-|son- ne chan-|te, qu'u- ne per-|son- ne chan- *|* * * te,|qu'u- ne per-|son- ne|
 d3 c B4 | A2 e2 edce | dc c4 B2 | c4 z2 c2- | c2 A4 B2 | c2 e2 e2 d2 | e2 c2 c2 c2 | A2 A4 c2- | %17
w: chan- * *|te, à qui _ _ _|_ _ _ le|coeur, à|_ qui le|coeur ne fais que|sous- pi- rer, ne|fais que sous-|
 cB A4 G2 | c8 | z2 B2 d2 A2- | AB cA e2 c2 | z4 z2 B2 | d2 AB cA c2 | B2 z A d2 d2 | c2 B2 e3 d | %25
w: * * * pi-|rer?|Lais- sez chan-|* * * * * ter,|lais-|ser chan- * * * *|ter ce- lui qui|se con- ten- *|
 cA c4 B2 | c4 z4 | A4 B2 ^c2 | d4 z2 A2 | B4 c4 | B2 A2 B4 | z2 d2 e3 B | d2 c2 B4 | z2 A4 A2 | %34
w: |te,|et me lais-|sez mon|seul mal|en- du- rer,|mon seul mal|en- du- rer,|et me|
 c2 B2 z4 | z2 A2 c3 G | _B2 A2 G2 G2 | ^F2 A3 G G2 | A2 c2 c2 B2 | A2 c2 d3 A | c2 B2 A2 e2 | %41
w: lais- sez|mon sel mal|en- du- rer, et|me lais- sez mon|seul mal en- du-|rer, mon seul mal|en- du- rer, et|
 d2 c2 d4- | d2 B2 c3 c | B2 A2 G2 c2 | d3 A c2 B2 | c2 e2 d3 A | c4 B4 | A8 |] %48
w: me lais- sez|_ mon seul mal|en- du- rer, mon|seul mal en- du-|rer, mon seul mal|en- du-|rer.|
V:4
 z4 A,4- | A,4 E,4 | G,4 F,4 | D,2 A,4 A,2 |"^#" E,3 F, G,2 G,2 | F,2 C,2 z2 G,2 | A,2 C2 C2 B,2 | %7
w: Las,|_ vo-|lez vous|qu'u- ne per-|son- * * ne|chan- te, qu'u-|ne per- son- ne|
 A,4 E,3 E, | F,2 A,2 A,2 G,2 | D,4 E,4 | A,,4 A,4 | F,4 G,4 | C,2 C4 A,2- | A,G,F,E, D,2 G,2 | %14
w: chan- te, qu'u-|ne per- son- ne|cha- *|te, à|qui le|coeur, à qui|_ _ _ _ _ le|
 C,2 C,2 E,2 G,2 | E,2 F,2 C,4 | C4 A,2 A,2 | F,3 F, E,4 | z2 A,,2 C,2 C,D, | E,C, G,2 D,4 | %20
w: coeur ne fais que|sous- pi- rer,|ne fais que|sous- pi- rer?|Lais- sez chan- *|* * * ter,|
 z2 A,2 E,2 F,G, | A,F, C2 G,4 | z2 D,2 A,,2 E,F, | G,E, A,2 G,2 G,2 | C,2 G,2 E,4 | F,4 G,4 | %26
w: lais- sez chan- *|* * * ter,|lais- sez chan- *|* * * ter ce-|lui qui se|con- ten-|
 C,4 z4 | z2 F,2 G,2 E,2 | D,4 z4 | z2 G,2 A,3 E, | G,2 F,2 E,4 | z8 | z2 A,2 ^G,2 G,2 | %33
w: te,|et me lais-|sez|mon seul mal|en- du- rer,||et me lais-|
 A,2 A,,2 D,2 D,2 | C,2 E,2 F,3 C, | E,2 D,2 C,4 | z2 D,2 E,3 B,, | D,2 C,2 B,,4 | z2 A,,2 E,4 | %39
w: sez, et me lais-|sez mon seul mal|en- du- rer,|mon seul mal|en- du- rer,|et me|
 F,4 D,4 | z2 E,2 C3 G, | _B,2 A,2 G,4 | z2 G,2 A,3 E, | G,2 F,2 C,4 | z4 z2 G,2 | A,3 E, G,2 F,2 | %46
w: lais- sez|mon seul mal|en- du- rer,|mon seul mal|en- du- rer,|mon|seul mal en- *|
 C,3 D, E,4 | A,,8 |] %48
w: * * du-|rer.|

